!!!OTL: Die verkaufte Muellerin
!!!OTL-incipit:Es wohnt ein Mueller an jenem Teich,
!!!ARE: Europa, Mitteleuropa, Deutschland (), Brandenburg
!!!YOR: 4, S. 344
!!    ????
!!!SCT: Q0086U
!!!YEM: Copyright 1995, estate of Helmut Schaffrath.
**kern	**text
*ICvox	*
*M3/4	*
*k[f#]	*
*G:	*
!LO:TX:a:t=Mäßig.	!
!LO:TX:a:t=Brandenburg	!
{4dd	Es
=1	=1
8b	wohnt
8dd	ein
8g	Mül-
8g	-ler
4dd	an
=2	=2
8b	je-
8dd	-nem
4g	Teich,
8r}	.
=||:	=||:
{8g	der
=3	=3
8ee	hatt'
8ee	ein
4gg	ſchö-
4ee	-nes
=4	=4
(8ee	jun-
8dd)	-ges
4dd	Weib,
8r}	.
{8dd	ein
=5	=5
8ee	ſchö-
8ee	-nes
4gg	jun-
4ee	-ges
=6	=6
(8ee	Weib-
8dd)	-chen.
4dd	.
8r}	.
==:||	==:||
!!!AGN: Ballade, Menschenhandel, Rettung, Hinrichtung
!! Schlusspause korrigiert.
!!!ONB: ESAC (Essen Associative Code) Database: BALLADE
!!!AMT: simple triple
!!!AIN: vox
!!!EED: Helmut Schaffrath
!!!EEV: 1.0
!!!source: Deutsche Volkslieder mit ihren Melodien. Herausgegeben vom Deutschen Volksliedarchiv. Vierter Band. Berlin 1959.
!!!page: 344
!!!ENC: Anna Maria Matuszewska
!!!EEV: 2025/02/27
*-	*-
